img/icon_facebook_dark_blue.svg

<svg width="46" height="48" fill="none" xmlns="http://www.w3.org/2000/svg"><path fill="#5496BD" d="M0 0h46v48H0z"/><path d="M29 17v-4h-4c-2.2091 0-4 1.7909-4 4v4h-4v4h4v10h4V25h4v-4h-4v-4h4z" fill="#fff" opacity=".3"/></svg>

<svg width="46" height="48" viewBox="0 0 46 48" fill="none" xmlns="http://www.w3.org/2000/svg">
<rect width="46" height="48" fill="#5496BD"/>
<g opacity="0.3">
<path d="M29 17V13H25C22.7909 13 21 14.7909 21 17V21H17V25H21V35H25V25H29V21H25V17H29Z" fill="white"/>
</g>
</svg>
